icons/black/nationwide.svg

<?xml version="1.0" encoding="UTF-8"?><svg id="b" xmlns="http://www.w3.org/2000/svg" viewBox="0 0 48 48"><defs><style>.c{fill:none;stroke:#000;stroke-linecap:round;stroke-linejoin:round;}</style></defs><path class="c" d="m24.74,39v4.5h10.08v-5.45h8.41l-.1-14.79-8.58-.05V4.5h-7.42v5.2h-5.13v2.82h0"/><path class="c" d="m24.74,43.5h-11.07v-7.75c1.94-3.23,4.7-7.28,7.12-10.86h11.42l-7.21,10.8h-11.33"/><path class="c" d="m34.59,14.45l8.54,8.81"/><path class="c" d="m35.7,31.05v2.73"/><path class="c" d="m13.7884,35.5538c-5.1949-1.3981-9.0185-6.1416-9.0185-11.7781,0-6.7358,5.4604-12.1962,12.1962-12.1962s12.1962,5.4604,12.1962,12.1962c0,.3756-.017.7473-.0502,1.1143"/></svg>

<svg xmlns="http://www.w3.org/2000/svg" viewBox="0 0 48 48"><defs><style>.a,.b{fill:none;stroke:#000;stroke-linejoin:round;}.b{stroke-linecap:round;}</style></defs><path class="a" d="M10.32,34.21A12.64,12.64,0,0,1,4.77,23.72,12.16,12.16,0,0,1,16.94,11.58a12.69,12.69,0,0,1,4.57.81c7,2.73,7.57,9.25,7.38,9.24l-10.13-.07Z"/><path class="b" d="M24.74,39V43.5H34.82V38.05h8.41l-.1-14.79-8.58-.05,0-9.18,0-9.53H27.13V9.7H22v2.82H22"/><path class="a" d="M24.74,43.5H13.67V35.75c1.94-3.23,4.7-7.28,7.12-10.86H32.21L25,35.69H13.67"/><path class="a" d="M34.59,14.45l8.54,8.81"/><path class="b" d="M35.7,31.05v2.73"/></svg>
